static/img/icons/ico-twitter.svg

<svg fill="none" height="32" viewBox="0 0 32 32" width="32" xmlns="http://www.w3.org/2000/svg"><path d="m30.72 0h-29.44c-.708 0-1.28.572-1.28 1.28v29.44c0 .708.572 1.28 1.28 1.28h29.44c.708 0 1.28-.572 1.28-1.28v-29.44c0-.708-.572-1.28-1.28-1.28zm-6.108 11.588c.012.188.012.384.012.576 0 5.872-4.472 12.636-12.644 12.636-2.52 0-4.856-.732-6.824-1.992.36.04.704.056 1.072.056 2.08 0 3.992-.704 5.516-1.896-1.952-.04-3.592-1.32-4.152-3.08.684.1 1.3.1 2.004-.08-1.0051-.2042-1.9085-.7501-2.55673-1.5449-.64824-.7948-1.00132-1.7895-.99927-2.8151v-.056c.588.332 1.28.536 2.004.564-.60863-.4056-1.10777-.9552-1.45316-1.5999-.34538-.6447-.52635-1.3647-.52684-2.0961 0-.828.216-1.584.604-2.24 1.11561 1.37335 2.50772 2.4966 4.0859 3.2967 1.5781.8001 3.3069 1.2591 5.0741 1.3473-.628-3.02 1.628-5.464 4.34-5.464 1.28 0 2.432.536 3.244 1.4 1.004-.188 1.964-.564 2.82-1.068-.332 1.028-1.028 1.896-1.952 2.444.896-.096 1.76-.344 2.56-.692-.604.888-1.36 1.676-2.228 2.304z" fill="#1da1f2"/></svg>

<svg width="32" height="32" viewBox="0 0 32 32" fill="none" xmlns="http://www.w3.org/2000/svg">
<path d="M30.72 0H1.28C0.572 0 0 0.572 0 1.28V30.72C0 31.428 0.572 32 1.28 32H30.72C31.428 32 32 31.428 32 30.72V1.28C32 0.572 31.428 0 30.72 0ZM24.612 11.588C24.624 11.776 24.624 11.972 24.624 12.164C24.624 18.036 20.152 24.8 11.98 24.8C9.46 24.8 7.124 24.068 5.156 22.808C5.516 22.848 5.86 22.864 6.228 22.864C8.308 22.864 10.22 22.16 11.744 20.968C9.792 20.928 8.152 19.648 7.592 17.888C8.276 17.988 8.892 17.988 9.596 17.808C8.5909 17.6038 7.6875 17.0579 7.03927 16.2631C6.39103 15.4683 6.03795 14.4736 6.04 13.448V13.392C6.628 13.724 7.32 13.928 8.044 13.956C7.43537 13.5504 6.93623 13.0008 6.59084 12.3561C6.24546 11.7114 6.06449 10.9914 6.064 10.26C6.064 9.432 6.28 8.676 6.668 8.02C7.78361 9.39335 9.17572 10.5166 10.7539 11.3167C12.332 12.1168 14.0608 12.5758 15.828 12.664C15.2 9.644 17.456 7.2 20.168 7.2C21.448 7.2 22.6 7.736 23.412 8.6C24.416 8.412 25.376 8.036 26.232 7.532C25.9 8.56 25.204 9.428 24.28 9.976C25.176 9.88 26.04 9.632 26.84 9.284C26.236 10.172 25.48 10.96 24.612 11.588Z" fill="#1DA1F2"/>
</svg>
